X: 26237
T: Meelick Team, The
R: jig
M: 6/8
K: Edorian
|:ege dBA|BAF E2 F|DEG E2 d|BAF E3|
e2 g dc/B/A|BAF E2 D|DEG E2 d|BAF E3:|
|:e2 B gfe|Beg fed|B2 g beg|fed e2 f|
g3 f/e/dB|BAF D2 A|d2 e fed|BAF E3:|

